X: 1
T: String Quartet in B\b Major opus 71 no 1 mvt 4
C: Franz Joseph Haydn
%%abc-version 2.0
%%abcx-abcm2ps-target-version 5.9.1 (29 Sep 2008)
%%abc-creator hum2abc beta
%%abcx-conversion-date 2021/02/14 14:38:33
%%abc-copyright Copyright (c) 1994, 2000 Center for Computer Assisted Research in the Humanities
%%abc-edited-by Frances Bennion
%%abcx-initial-encoding-date 1997/04/15
%%gracespace 0 6 6
%%humdrum-veritas 1328224991
%%humdrum-veritas-data 818564186
%%linebreak <none>
%%barnumbers 0
L: 1/8
M: 2/4
N: Derived from op71n1-04.krn
Q: "Vivace"
%%staves [1 2 3 4]
V: 1
V: 2
V: 3 clef=alto
V: 4 clef=bass
K: Bb
[V:1]z3 F [I:setbarnb1]|
[V:2]z3 z |
[V:3]z3 z |
[V:4]z3 z |
[V:1]B2 cB/c/ |
[V:2]zF zE |
[V:3]zD zA, |
[V:4]B,,z F,,z |
[V:1]B3 c |
[V:2]zD Dz |
[V:3]zB,/F,/ D,F, |
[V:4]B,,2 z2 |
[V:1]d2 ed/e/ |
[V:2]z4 |
[V:3]B,z Cz |
[V:4]zB,, zB,, |
[V:1]f3 d'/c'/ |
[V:2]zD/F/ Bz |
[V:3]Dz3 |
[V:4]zB,, B,,z |
[V:1]b/a/g/f/ e/d/c/B/ |
[V:2]zD EF |
[V:3]zB, CD |
[V:4]z4 |
[V:1]AA Ae'/d'/ |
[V:2]EE Ez |
[V:3]CC Cz |
[V:4]z4 |
[V:1]c'/b/a/g/ f/e/d/c/ |
[V:2]zE FG |
[V:3]zC DE |
[V:4]z4 |
[V:1]BB Bf |
[V:2]FF Fd |
[V:3]DD DD,/E,/ |
[V:4]z3 B,,/C,/ |
[V:1]ff ff |
[V:2]dd dd |
[V:3]F,/G,/A,/B,/ C/D/E/F/ |
[V:4]D,/E,/F,/G,/ A,/B,/C/D/ |
[V:1]f2 ed |
[V:2]d2 cB |
[V:3]G3 G/A/ |
[V:4]E3 =E |
[V:1]cc c/B/c/d/ |
[V:2]F2 z2 |
[V:3]B2 A2 |
[V:4]F4 |
[V:1]B2 zd'/c'/ |
[V:2]zD/F/ Bz |
[V:3]B2 z2 |
[V:4]B,2 z2 |
[V:1]b/a/g/f/ e/d/c/B/ |
[V:2]z4 |
[V:3]zD EF |
[V:4]zB, CD |
[V:1]AA Ae'/d'/ |
[V:2]FF Fz |
[V:3]EE Ez |
[V:4]CC Cz |
[V:1]c'/b/a/g/ f/e/d/c/ |
[V:2]z4 |
[V:3]zE FG |
[V:4]zC DE |
[V:1]=BB Bf'/e'/ |
[V:2]_AA A=B,/C/ |
[V:3]FF FG,/A,/ |
[V:4]DD Dz |
[V:1]d'/c'/=b/_a/ g/f/e/d/ |
[V:2]D/E/F/G/ A/=B/c/d/ |
[V:3]=B,/C/D/E/ F/G/A/=B/ |
[V:4]G,4 |
[V:1]ec'2 a |
[V:2]e/d/c/B/ A/G/F/E/ |
[V:3]c/B/A/G/ F/E/D/C/ |
[V:4]C,2 zF, |
[V:1]b/f/d/f/ e/c/A/c/ |
[V:2]Dz Ez |
[V:3]B,z A,z |
[V:4]B,z F,z |
[V:1]B3 c |
[V:2]D3 E |
[V:3]B,F BA |
[V:4]B,,B,, B,,B,, |
[V:1]Bc Bc |
[V:2]DE DE |
[V:3]BA BA |
[V:4]B,,B,, B,,B,, |
[V:1]Bd fe/d/ |
[V:2]D4 |
[V:3]BF2 ^F |
[V:4]B,,B,, B,,B,, |
[V:1]c3 =B |
[V:2]E3 F |
[V:3]G3 _A |
[V:4]B,,B,, B,,B,, |
[V:1]c=B cB |
[V:2]EF EF |
[V:3]G_A GA |
[V:4]B,,B,, B,,B,, |
[V:1]ce gf/e/ |
[V:2]E4 |
[V:3]G4 |
[V:4]B,,B,, B,,B,, |
[V:1]d3 e |
[V:2]F3 E |
[V:3]_A3 G |
[V:4]B,,B,, B,,B,, |
[V:1]de de |
[V:2]FE FE |
[V:3]_AG AG |
[V:4]B,,B,, B,,B,, |
[V:1]d/e/f/g/ _ag/f/ |
[V:2]F3 B |
[V:3]_A3 D |
[V:4]B,,B,, B,,B,, |
[V:1]^fg2 =f- |
[V:2]B4 |
[V:3]E2 D2 |
[V:4]E,2 z2 |
[V:1]fe2 d- |
[V:2]A2 B2 |
[V:3]C2 B,2 |
[V:4]z4 |
[V:1]dc2 B |
[V:2]G4 |
[V:3]E2 =E2 |
[V:4]z4 |
[V:1]A/c/B/A/ B/c/d/=e/ |
[V:2]F2 z2 |
[V:3]F2 z2 |
[V:4]z4 |
[V:1]f2 gf/g/ |
[V:2]zF =EC |
[V:3]z4 |
[V:4]z4 |
[V:1]a2 ba/b/ |
[V:2]F2 GF/G/ |
[V:3]z3 C |
[V:4]z4 |
[V:1]ac'2 =e |
[V:2]A2 BA/B/ |
[V:3]F2 GF/G/ |
[V:4]z4 |
[V:1]f/g/a/b/ c'=e |
[V:2]cA2 B/A//B// |
[V:3]AF2 G/F//G// |
[V:4]z4 |
[V:1]fa2 ^c |
[V:2]c=E FG |
[V:3]A^C D=E |
[V:4]z4 |
[V:1]df2 A |
[V:2]A^C DE |
[V:3]FA, B,C |
[V:4]z4 |
[V:1]Bd2 c |
[V:2]DB2 A |
[V:3]D^F, G,A, |
[V:4]zD, =E,^F, |
[V:1]BA GF |
[V:2]G^F GG |
[V:3]B,C DD |
[V:4]G,A, B,=B, |
[V:1]=Ec c=B/c/ |
[V:2]G4 |
[V:3]=E4 |
[V:4]CC CC |
[V:1]=Bf f=e/f/ |
[V:2][=B4F4] |
[V:3]D4 |
[V:4]CC CC |
[V:1]=ec' c'=b/c'/ |
[V:2][G4c4] |
[V:3]=E4 |
[V:4]CC CC |
[V:1]=bf f=e/f/ |
[V:2][F4d4] |
[V:3]=B4 |
[V:4]CC CC |
[V:1]=eg/a/ ba |
[V:2][Gc]=e/f/ gf |
[V:3]c2 =EF |
[V:4]C4- |
[V:1]gf =ed |
[V:2]=ed cB |
[V:3]G2 z2 |
[V:4]C4 |
[V:1]c4 |
[V:2]A4 |
[V:3]z4 |
[V:4]C,C CC |
[V:1]B4 |
[V:2]G4 |
[V:3]z4 |
[V:4]CC CC |
[V:1]AA2 B |
[V:2]^FF2 G |
[V:3]E2 Dz |
[V:4]C2 B,z |
[V:1]zG2 A- |
[V:2]z=E2 F- |
[V:3]_D2 C2 |
[V:4]B,2 A,F, |
[V:1]AG F=E |
[V:2]FD CB, |
[V:3]DB, A,G, |
[V:4]B,,2 C,2 |
[V:1]e2 dz |
[V:2]^F2 Gz |
[V:3]zC2 D |
[V:4]zA,2 B, |
[V:1]_d2 c2- |
[V:2]=E2 F2- |
[V:3]zB,2 C |
[V:4]zG,2 A, |
[V:1]cB AG |
[V:2]FG F=E |
[V:3]D2 CB, |
[V:4]B,2 C2 |
[V:1]F/f/c/A/ F/c/A/F/ |
[V:2]FC2 C |
[V:3]A,A,2 A, |
[V:4]F,F, F,F, |
[V:1]=E/b/g/=e/ c/B/G/E/ |
[V:2][=EG,][E2G,2] [EG,] |
[V:3]B,B,2 B, |
[V:4]F,F, F,F, |
[V:1]F/f/c/A/ F/c/A/F/ |
[V:2][FA,]C2 C |
[V:3]A,A,2 A, |
[V:4]F,F, F,F, |
[V:1]=E/b/g/=e/ c/B/G/E/ |
[V:2][=EG,][G,2E2] [EG,] |
[V:3]B,B,2 B, |
[V:4]F,F, F,F, |
[V:1]F/c/B/A/ G/B/A/G/ |
[V:2]F/A/G/F/ =E/G/F/E/ |
[V:3]A,z Cz |
[V:4]F,2 zC, |
[V:1]A2 zd/c/ |
[V:2]F2 z2 |
[V:3]A,/C/B,/A,/ G,/B,/A,/G,/ |
[V:4]F,/A,/G,/F,/ =E,/G,/F,/E,/ |
[V:1]A/c/B/A/ G/B/A/G/ |
[V:2]F/A/G/F/ =E/G/F/E/ |
[V:3]A,2 z2 |
[V:4]F,2 zC, |
[V:1]Ac2 c |
[V:2]F2 z2 |
[V:3]A,/C/B,/A,/ G,/B,/A,/G,/ |
[V:4]F,/A,/G,/F,/ =E,/G,/F,/E,/ |
[V:1]c/A/B/B/ B/G/A/A/ |
[V:2]z4 |
[V:3]F,/A,/G,/F,/ =E,/G,/F,/E,/ |
[V:4]D,/F,/=E,/D,/ C,/E,/D,/C,/ |
[V:1]A/D/G/G/ G/=E/F/F/ |
[V:2]D/F/=E/D/ C/E/D/C/ |
[V:3]D,2 z2 |
[V:4]B,,/D,/C,/B,,/ A,,/C,/B,,/A,,/ |
[V:1]=E/F/G/A/ B/c/d/=e/ |
[V:2]B,4 |
[V:3]z2 G2 |
[V:4]G,,2 C,,2 |
[V:1]f3 g/=e/ |
[V:2]A,c2 c |
[V:3]AA AB |
[V:4]F,,2 z2 |
[V:1]f/a/g/=e/ f/a/g/e/ |
[V:2]c4- |
[V:3]AB AB |
[V:4]z4 |
[V:1]ff2 g/=e/ |
[V:2]c4- |
[V:3]AA AB |
[V:4]z4 |
[V:1]f/a/g/=e/ f/a/g/e/ |
[V:2]c4 |
[V:3]AB AB |
[V:4]z4 |
[V:1]f/g/a/b/ c'/d'/=e'/f'/ |
[V:2][F4c4] |
[V:3]A2 A,2 |
[V:4]z4 |
[V:1]d'd' zb |
[V:2][F2d2] zg |
[V:3]B,z Bz |
[V:4]z4 |
[V:1]za zg |
[V:2]zf z=e |
[V:3]cz Bz |
[V:4]z4 |
[V:1]c'z bz |
[V:2]az gz |
[V:3]zc zB |
[V:4]zA zG |
[V:1]az gz |
[V:2]fz cz |
[V:3]zA zG |
[V:4]zF zC |
[V:1](3c'/c'/c'/z (3b/b/b/z |
[V:2](3a/a/a/z (3g/g/g/z |
[V:3]zc zB |
[V:4]zA zG |
[V:1](3a/a/a/z (3g/g/g/z |
[V:2](3f/f/f/z (3c/c/c/z |
[V:3]zA zG |
[V:4]zF zC |
[V:1]f4- |
[V:2]zA FB |
[V:3]zC A,D |
[V:4]z4 |
[V:1]f3 ^f |
[V:2]Gc Ae |
[V:3]B,E Cc |
[V:4]z3 A, |
[V:1]ga bd' |
[V:2]dc Bb |
[V:3]Be dz |
[V:4]B,^F, G,B,, |
[V:1]c'b ag |
[V:2]ag f=e |
[V:3]z3 B |
[V:4]C,4 |
[V:1]f4- |
[V:2]fA FB |
[V:3]AA, CB, |
[V:4]F,,F, A,G, |
[V:1]f3 ^f |
[V:2]Gc Ae |
[V:3]DC Ec |
[V:4]B,A, CA, |
[V:1]ga bd' |
[V:2]dc Bb |
[V:3]Be dz |
[V:4]B,^F, G,B,, |
[V:1]c'b ag |
[V:2]ag f=e |
[V:3]zd cB |
[V:4]C,4 |
[V:1]f2 zc |
[V:2]f2 [A,2F2] |
[V:3]A2 C2 |
[V:4]F,,F, F,F, |
[V:1]=B/c/d/c/ _B/A/B/G/ |
[V:2][G4B,4] |
[V:3][=E4C4] |
[V:4]F,F, F,F, |
[V:1]FF2 A/F/ |
[V:2][A,4F4] |
[V:3][C4F4] |
[V:4]F,,F, F,F, |
[V:1]=E/F/G/E/ C/D/E/C/ |
[V:2][B,4G4] |
[V:3][=E4C4] |
[V:4]F,F, F,F, |
[V:1]FF2 c' |
[V:2][A,F][F2A,2] [FA,] |
[V:3]FC2 C |
[V:4]F,,F, F,F, |
[V:1]=b/c'/d'/c'/ _b/a/b/g/ |
[V:2][B,G][B,2G2] [B,G] |
[V:3][C=E][E2C2] [EC] |
[V:4]F,,F, F,F, |
[V:1]ff2 a/f/ |
[V:2][A,F][F2A,2] [A,F] |
[V:3][CF][C2F2] [FC] |
[V:4]F,,F, F,F, |
[V:1]=e/f/g/e/ c/d/e/c/ |
[V:2][GB,][B,2G2] [B,G] |
[V:3][=EC][E2C2] [EC] |
[V:4]F,,F, F,F, |
[V:1]f/g/a/f/ c/d/=e/c/ |
[V:2][A,2F2] [B,2G2] |
[V:3][F2C2] [=E2C2] |
[V:4]F,,F, F,,F, |
[V:1]f/g/a/f/ c/d/=e/c/ |
[V:2][A,2F2] [B,2G2] |
[V:3][F2C2] [=E2C2] |
[V:4]F,,F, F,,F, |
[V:1]fz [ac]z |
[V:2][FA,]z [FA,]z |
[V:3][CF]z [FC]z |
[V:4]F,,z F,,z |
[V:1][f2A2] z2 |
[V:2][F2A,2] z2 |
[V:3][C2F2] z2 |
[V:4]F,,2 zC |
[V:1]z4 |
[V:2]z4 |
[V:3]z3 c |
[V:4]=B,/C/D/C/ _B,/A,/B,/G,/ |
[V:1]z4 |
[V:2]z3 =e |
[V:3]=B/c/d/c/ _B/A/B/G/ |
[V:4]A,F GC |
[V:1]z3 a |
[V:2]=e/f/g/f/ _e/d/e/c/ |
[V:3]A3 c |
[V:4]F2 F,2 |
[V:1]a/b/c'/b/ _a/g/a/f/ |
[V:2]d4 |
[V:3]F4 |
[V:4]B,3 B, |
[V:1]g3 G/d/ |
[V:2]d/e/f/e/ d/c/d/=B/ |
[V:3][G,3D3] G |
[V:4]=B,/C/D/C/ B,/A,/B,/G,/ |
[V:1]d/e/f/d/ d/c/d/=B/ |
[V:2]G2 z2 |
[V:3]^F/G/A/G/ =F/E/F/D/ |
[V:4]C4 |
[V:1]=B/c/d/c/ _B/A/B/G/ |
[V:2]z3 G |
[V:3]E2 =E2 |
[V:4]C,2 ^C,2 |
[V:1]A2 zd |
[V:2]^F/G/A/G/ A/B/c/B/ |
[V:3]DD ^F/G/A/G/ |
[V:4]D,4 |
[V:1]^f/g/a/g/ a/b/c'/b/ |
[V:2]c/d/e/d/ ^f/g/a/g/ |
[V:3]A/B/c/B/ A/G/^F/G/ |
[V:4]D,4 |
[V:1]c'/d'/e'/d'/ e'e' |
[V:2]a/b/c'/b/ c'c' |
[V:3]c/B/A/B/ AA |
[V:4]A/G/^F/G/ FF |
[V:1]e'3 d' |
[V:2]c'3 b |
[V:3]A3 B |
[V:4]^F3 G |
[V:1]c'/d'/e'/d'/ e'e' |
[V:2]a/b/c'/b/ c'c' |
[V:3]c/B/A/B/ AA |
[V:4]A/G/^F/G/ FF |
[V:1]e'3 d' |
[V:2]c'3 b |
[V:3]A3 B |
[V:4]^F3 G |
[V:1]c'/d'/e'/d'/ e'e' |
[V:2]a/b/c'/b/ c'c' |
[V:3]c/B/A/B/ AE, |
[V:4]A/G/^F/G/ FC,, |
[V:1]c'c' aa |
[V:2]aa ^ff |
[V:3]^F,F, A,A, |
[V:4]E,,E,, ^F,,F,, |
[V:1]^ff ee |
[V:2]ee cc |
[V:3]CC EE |
[V:4]A,,A,, C,C, |
[V:1]cc AA |
[V:2]AA ^FF |
[V:3]^F^F, A,A, |
[V:4]E,E, ^F,F, |
[V:1]^F4 |
[V:2]E4 |
[V:3]C4 |
[V:4]A,4 |
[V:1]G4 |
[V:2]=E4 |
[V:3]^C4 |
[V:4]B,4 |
[V:1]Bd zc |
[V:2]GB zA |
[V:3][G,D]z A,z |
[V:4]D,z D,z |
[V:1]zB zA |
[V:2]zG z^F |
[V:3]B,z Cz |
[V:4]D,z D,z |
[V:1](3d/d/d/z (3c/c/c/z |
[V:2](3B/B/B/z (3A/A/A/z |
[V:3]zD zC |
[V:4]zB, zA, |
[V:1](3B/B/B/z (3A/A/A/z |
[V:2](3G/G/G/z (3^F/F/F/z |
[V:3]zB, zA, |
[V:4]zG, zD, |
[V:1]G4- |
[V:2]GB, G,C |
[V:3]G,4- |
[V:4]G,,D, B,,E, |
[V:1]G3 _A |
[V:2]A,D =B,D |
[V:3]G,3 =B, |
[V:4]C,F, D,F, |
[V:1]G=B cd |
[V:2]E_A GF |
[V:3]CD E=B, |
[V:4]E,F, E,D, |
[V:1]ed cB |
[V:2]E=B cG |
[V:3]C_A GC |
[V:4]C,D, E,=E, |
[V:1]AG FA |
[V:2]C=E F_E |
[V:3]FB, A,C |
[V:4]F,G, A,F, |
[V:1]B2 cB/c/ |
[V:2]DF zE |
[V:3]DF zA, |
[V:4]B,,z F,,z |
[V:1]B3 c |
[V:2]zD Dz |
[V:3]zB,/F,/ D,F, |
[V:4]B,,2 z2 |
[V:1]d2 ed/e/ |
[V:2]z4 |
[V:3]B,z Cz |
[V:4]zB,, zB,, |
[V:1]f3 d'/c'/ |
[V:2]zD/F/ Bz |
[V:3]D2 z2 |
[V:4]zB,, B,,z |
[V:1]b/a/g/f/ e/d/c/B/ |
[V:2]zD EF |
[V:3]zB, CD |
[V:4]z4 |
[V:1]AA Ae'/d'/ |
[V:2]EE Ez |
[V:3]CC Cz |
[V:4]z4 |
[V:1]c'/b/a/g/ f/e/d/c/ |
[V:2]zE FG |
[V:3]zC DE |
[V:4]z4 |
[V:1]BB Bf |
[V:2]FF Fd |
[V:3]DD DD,/E,/ |
[V:4]z3 B,,/C,/ |
[V:1]ff ff |
[V:2]dd dd |
[V:3]F,/G,/A,/B,/ C/D/E/F/ |
[V:4]D,/E,/F,/G,/ A,/B,/C/D/ |
[V:1]f2 ed |
[V:2]d2 cB |
[V:3]G3 G/A/ |
[V:4]E3 =E |
[V:1]cc c/B/c/d/ |
[V:2]F2 z2 |
[V:3]B2 A2 |
[V:4]F4 |
[V:1]B2 z2 |
[V:2]zD/F/ Bd/c/ |
[V:3]B2 z2 |
[V:4]B,2 z2 |
[V:1]zd dd |
[V:2]B/A/G/F/ E/D/C/B,/ |
[V:3]zF, F,F, |
[V:4]zB,, B,,B,, |
[V:1]e/f/e/d/ ez |
[V:2]A,A, A,e/d/ |
[V:3]F,2 z2 |
[V:4]C,2 z2 |
[V:1]ze ee |
[V:2]c/B/A/G/ F/E/D/C/ |
[V:3]zA, A,A, |
[V:4]zC, C,C, |
[V:1]f/g/f/e/ fc'/b/ |
[V:2]B,B, B,_a/g/ |
[V:3]_A,3 D,/E,/ |
[V:4]D,3 B,,/C,/ |
[V:1]_a/g/f/e/ d/c/B/_A/ |
[V:2]f/e/d/c/ B/_A/G/F/ |
[V:3]F,/G,/_A,/B,/ C/D/E/F/ |
[V:4]D,/E,/F,/G,/ _A,/B,/C/D/ |
[V:1]Gg2 f- |
[V:2]EB2 B |
[V:3]GE DB |
[V:4]E2 z2 |
[V:1]fe2 d- |
[V:2]A2 B2 |
[V:3]CF B,F |
[V:4]z4 |
[V:1]dc2 B |
[V:2]G4 |
[V:3]E,E =E,=E |
[V:4]z4 |
[V:1]Ag/f/ fe |
[V:2]F2 z2 |
[V:3]F2 zA, |
[V:4]z3 F, |
[V:1]df AG/A/ |
[V:2]z4 |
[V:3]D2 ED/E/ |
[V:4]B,2 CB,/C/ |
[V:1]Bg/f/ ff |
[V:2]z3 A |
[V:3]F3 E |
[V:4]D3 C |
[V:1]f4- |
[V:2]B2 cB/c/ |
[V:3]F2 GF/G/ |
[V:4]D2 ED/E/ |
[V:1]fc'/b/ bb |
[V:2]d3 d |
[V:3]_A3 A |
[V:4]F3 F |
[V:1]bc'/b/ b2- |
[V:2]e2 dc/d/ |
[V:3]B2 _AG/A/ |
[V:4]G2 FE/F/ |
[V:1]bc'/b/ b2- |
[V:2]e2 dc/d/ |
[V:3]B2 _AG/A/ |
[V:4]G2 FE/F/ |
[V:1]b/d'/e'/d'/ e'/d'/c'/b/ |
[V:2]e4- |
[V:3]B4 |
[V:4]G4 |
[V:1]a/c'/e'/c'/ e'/c'/a/c'/ |
[V:2]e4- |
[V:3]c4- |
[V:4]_G4 |
[V:1]a/c'/e'/c'/ a/c'/e'/c'/ |
[V:2]e4- |
[V:3]c4- |
[V:4]F_G FG |
[V:1]a/b/c'/b/ a/g/f/e/ |
[V:2]e2 c2 |
[V:3]c3 A |
[V:4]F4 |
[V:1]d/a/b/a/ b/^f/g/f/ |
[V:2]d2 z2 |
[V:3]B2 z2 |
[V:4]B,2 z2 |
[V:1]g/d/e/d/ e/=B/c/B/ |
[V:2]z/D/E/D/ E/=B,/C/B,/ |
[V:3]z4 |
[V:4]z4 |
[V:1]c/G/_A/G/ A/^F/G/F/ |
[V:2]C/G/_A/G/ A/^F/G/F/ |
[V:3]z/G,/_A,/G,/ A,/^F,/G,/F,/ |
[V:4]z2 z/^F,/G,/F,/ |
[V:1]G/D/E/D/ E/=B,/C/B,/ |
[V:2]G/D/E/D/ E/=B,/C/B,/ |
[V:3]G,/D,/E,/D,/ E,/D,/C,/D,/ |
[V:4]G,/D,/E,/D,/ E,/=B,,/C,/B,,/ |
[V:1]CE G=B |
[V:2]CE G=B, |
[V:3]C,E, G,=B, |
[V:4]C,E, G,=B, |
[V:1]ce ^fg |
[V:2]CE ^FG |
[V:3]C2 z2 |
[V:4]C2 z2 |
[V:1]Ff ze |
[V:2]Fd zc |
[V:3]F,z Cz |
[V:4]F,z F,z |
[V:1]zd zc |
[V:2]zB zA |
[V:3]Dz Ez |
[V:4]F,z F,z |
[V:1]b4- |
[V:2]zd Be |
[V:3]zF DG |
[V:4]B,,2 z2 |
[V:1]b3 _a |
[V:2]cf dE |
[V:3]E_A FF, |
[V:4]z3 C |
[V:1]g^f g=f |
[V:2]D4 |
[V:3]G,4- |
[V:4]=B,4 |
[V:1]ec'2 c'- |
[V:2]Ee cf |
[V:3]G,G E_A |
[V:4]C2 z2 |
[V:1]c'c'2 b |
[V:2]dg =eg |
[V:3]FB Gc |
[V:4]z3 =E |
[V:1]a3 c' |
[V:2]fe c2- |
[V:3]Fc A2- |
[V:4]F3 A |
[V:1]a3 c' |
[V:2]ce c2 |
[V:3]Ac A2- |
[V:4]F3 A |
[V:1]a3 c' |
[V:2]e_g e2- |
[V:3]Ae c2- |
[V:4]F3 A |
[V:1]a3 c' |
[V:2]e_g e2- |
[V:3]ce c2- |
[V:4]F3 A |
[V:1]az3 |
[V:2]e_g eg |
[V:3]ce ce |
[V:4]Fz3 |
[V:1]z4 |
[V:2]e_g eg |
[V:3]ce ce |
[V:4]z4 |
[V:1]z3 _a- |
[V:2]e_g eg |
[V:3]ce ce |
[V:4]z3 C |
[V:1]a_a2 a |
[V:2]e_g eg |
[V:3]ce ce |
[V:4]EC EC |
[V:1]g/_a/b/a/ _g/f/g/e/ |
[V:2]ec ec |
[V:3]_G2 CE |
[V:4]E2 _A,,2 |
[V:1]_dd2 f/d/ |
[V:2]_A4 |
[V:3]F4 |
[V:4]_D,4- |
[V:1]c/_d/e/c/ _A/B/c/A/ |
[V:2]_G4 |
[V:3]E4 |
[V:4]D,4 |
[V:1]_dd2 _a |
[V:2]F_A2 A |
[V:3]FF2 F |
[V:4]_D,D,2 D,- |
[V:1]g/_a/b/a/ _g/f/g/e/ |
[V:2][c_G][c2G2] [cG] |
[V:3]EE2 E |
[V:4]D,_D,2 D,- |
[V:1]_dd2 f |
[V:2][_dF]_A2 A |
[V:3]FF2 F |
[V:4]D,_D,2 D, |
[V:1]=e/f/_g/f/ _e/_d/e/c/ |
[V:2]FF2 F |
[V:3][EC][C2E2] [CE] |
[V:4]A,,A,,2 A,, |
[V:1]BB2 _d/c/ |
[V:2]FF2 F |
[V:3]_DD2 D |
[V:4]B,,B,,2 B,, |
[V:1]A/B/c/B/ _d=E |
[V:2]=EE2 E |
[V:3]B,B,2 B, |
[V:4]_G,,G,,2 G,, |
[V:1]F/A/G/B/ A/F/G/=E/ |
[V:2]F2 zC |
[V:3]A,B, CB, |
[V:4]F,,4- |
[V:1]F/A/G/B/ A/F/G/=E/ |
[V:2]F2 zC |
[V:3]A,B, CB, |
[V:4]F,,4- |
[V:1]F/A/G/B/ A/c/B/d/ |
[V:2]F=E _ED |
[V:3]F,2 z2 |
[V:4]F,,4- |
[V:1]c/e/d/f/ e/g/f/e/ |
[V:2]A,B, CA |
[V:3]z4 |
[V:4]F,,4 |
[V:1]d/f/e/d/ c/e/d/c/ |
[V:2]B/d/c/B/ A/c/B/A/ |
[V:3]z3 F/E/ |
[V:4]B,,2 zF, |
[V:1]d2 zg/f/ |
[V:2]B2 z2 |
[V:3]D/F/E/D/ C/E/D/C/ |
[V:4]B,/D/C/B,/ A,/C/B,/A,/ |
[V:1]d/f/e/d/ c/e/d/c/ |
[V:2]B/d/c/B/ A/c/B/A/ |
[V:3]D2 z2 |
[V:4]B,2 zF, |
[V:1]df2 f |
[V:2]B2 z2 |
[V:3]D/F/E/D/ C/E/D/C/ |
[V:4]B,/D/C/B,/ A,/C/B,/A,/ |
[V:1]f/d/e/e/ e/c/d/d/ |
[V:2]z4 |
[V:3]B,/D/C/B,/ A,/C/B,/A,/ |
[V:4]G,/B,/A,/G,/ F,/A,/G,/F,/ |
[V:1]d/G/c/c/ c/A/B/B/ |
[V:2]G/B/A/G/ F/A/G/F/ |
[V:3]G,2 z2 |
[V:4]E,/G,/F,/E,/ D,/F,/E,/D,/ |
[V:1]A/B/c/d/ e/f/g/a/ |
[V:2]E4 |
[V:3]z2 c2 |
[V:4]C,2 F,,2 |
[V:1]b3 c'/a/ |
[V:2]Df2 f |
[V:3]dd de |
[V:4]B,,2 z2 |
[V:1]b/d'/c'/a/ b/d'/c'/a/ |
[V:2]f4- |
[V:3]de de |
[V:4]z4 |
[V:1]bb2 c'/a/ |
[V:2]f4- |
[V:3]dd de |
[V:4]z4 |
[V:1]b/d'/c'/a/ b/d'/c'/a/ |
[V:2]f4 |
[V:3]de de |
[V:4]z4 |
[V:1]b/c'/d'/e'/ f'/g'/a'/b'/ |
[V:2][f4B4] |
[V:3]d2 D2 |
[V:4]z4 |
[V:1]b'g' ze' |
[V:2][g2B2] zc |
[V:3]Ez Ez |
[V:4]z4 |
[V:1]zd' zc' |
[V:2]zB zA |
[V:3]Fz Ez |
[V:4]z4 |
[V:1]f'z e'z |
[V:2]dz cz |
[V:3]zF zE |
[V:4]zD zC |
[V:1]d'z c'z |
[V:2]Bz Fz |
[V:3]zD zC |
[V:4]zB, zF, |
[V:1](3b/b/b/z (3g/g/g/z |
[V:2]DB zB |
[V:3]zB, z2 |
[V:4]zG, zG |
[V:1](3f/f/f/z (3=e/e/e/z |
[V:2]zB zB |
[V:3]z4 |
[V:4]zG zG |
[V:1]f4- |
[V:2]A4 |
[V:3]z4 |
[V:4]FF FF |
[V:1]fe dc |
[V:2]_A4 |
[V:3]z4 |
[V:4]FF FF |
[V:1]=Bd2 e |
[V:2]D=B2 c |
[V:3]_A2 Gz |
[V:4]F2 Ez |
[V:1]zc2 d- |
[V:2]zA2 B- |
[V:3]_G2 F2 |
[V:4]E2 DB,, |
[V:1]dc BA |
[V:2]BG FE |
[V:3]GE DC |
[V:4]E,2 F,2 |
[V:1]_a2 gz |
[V:2]=B2 cz |
[V:3]zF2 E |
[V:4]zD2 E |
[V:1]_g2 f2- |
[V:2]A2 B2 |
[V:3]zE2 D |
[V:4]zC2 D |
[V:1]fe dc |
[V:2]G2 FE |
[V:3]Ec BA |
[V:4]EC, F,F, |
[V:1]B2 zB |
[V:2]D[F2D2] [FD] |
[V:3]BF2 F- |
[V:4]B,B, B,B, |
[V:1]A/B/c/B/ A/F/G/A/ |
[V:2][EC][E2C2] [EC] |
[V:3]FF2 F- |
[V:4]B,B, B,B, |
[V:1]BB2 d/B/ |
[V:2][DB,][F2D2] [FD] |
[V:3]FF2 F- |
[V:4]B,B, B,B, |
[V:1]A/B/c/B/ A/F/G/A/ |
[V:2][EC][E2C2] [EC] |
[V:3]FF2 F- |
[V:4]B,B, B,B, |
[V:1]B3 b |
[V:2][DB,][B2D2] [BD] |
[V:3]FF,2 F,- |
[V:4]B,,B,,2 B,,- |
[V:1]a/b/c'/b/ a/f/g/a/ |
[V:2][Ec][c2E2] [cE] |
[V:3]F,F,2 F,- |
[V:4]B,,B,,2 B,,- |
[V:1]bb2 d'/b/ |
[V:2][BD][B2D2] [BD] |
[V:3]F,F,2 F,- |
[V:4]B,,B,,2 B,,- |
[V:1]a/b/c'/b/ a/f/g/a/ |
[V:2][Ec][c2E2] [Ec] |
[V:3]F,F,2 F, |
[V:4]B,,B,,2 B,, |
[V:1]b3 f |
[V:2][B3D3] d |
[V:3]F,D FB |
[V:4]B,,4- |
[V:1]_g4 |
[V:2]e4 |
[V:3]A/B/c/B/ A/G/A/F/ |
[V:4]B,,4- |
[V:1]fb d'B |
[V:2]d3 F |
[V:3]B3 D |
[V:4]B,,4- |
[V:1]A/B/c/B/ A/e/c/A/ |
[V:2]_G4 |
[V:3]E4 |
[V:4]B,,4- |
[V:1]Bd fF |
[V:2]F3 D |
[V:3]D2 z2 |
[V:4]B,,3 B,, |
[V:1]_G4 |
[V:2]E4 |
[V:3]z4 |
[V:4]A,,/B,,/C,/B,,/ A,,/F,,/G,,/A,,/ |
[V:1]FB dB |
[V:2]D3 D |
[V:3]z3 F, |
[V:4]B,,4 |
[V:1]A4 |
[V:2]=B,/C/D/C/ E/C/E/C/ |
[V:3]D,/E,/F,/E,/ C,/E,/C,/E,/ |
[V:4]F,,4 |
[V:1]B4 |
[V:2]B,D B,D |
[V:3]D,F, D,F, |
[V:4]B,,4 |
[V:1]A4 |
[V:2]=B,/C/D/C/ E/C/E/C/ |
[V:3]D,/E,/F,/E,/ C,/E,/C,/E,/ |
[V:4]F,,4 |
[V:1]Bz dz |
[V:2]Dz Fz |
[V:3]D,z D,z |
[V:4]B,,z B,,z |
[V:1]B2 z2 |]
[V:2]D2 z2 |]
[V:3]D,2 z2 |]
[V:4]B,,2 z2 |]

